FINK
CUT[ERHEBT EUCH VON DER ERDE]
REG[Europa, Mitteleuropa, Deutschland]
KEY[F0384  08 Eb 4/4]
MEL[-5_  -5_-3_1_-5_  -6__-5_
    -5_  3_1_-5_13  2__0_
    -5_  -5_-3_1_-5_  -6__-5_
    -5_  3_1_-5_13  2__0_
    2_  2_.-7-5_2_  3__1_
    1_  2_3_4_3_  2__0_
    2_  3_2_1_-7_  -6_4
    43_2_  1__-7__  1__0_ //] >>
FCT[Vaterlands -, Heimat - Lied, nationalistisch, Krieg]
